X:1
T:Fisel : Suite A
R:fisel
C:Trad.
S:
A:Bretagne
Z:Roger Ngaret (94-95)
K:Eb
T:Ton simple
Q:1/4=150
M:4/4
L:1/8
K:Eb
ce ec de (3fgf | df ec dB c2 :: ce ec de (3fgf | d2 gb gf g2 |
(3gab gf de gf | df ec dB c2 :|
T:Bal
Q:1/4=100
M:6/8
L:1/8
ccc g3 | afa g3 | fgf edc | f2 e d3 ::
def edc | e2 d c2 B | def edc |1 g2 a g3 :|2 e2 d c3 |]
T:Ton double
Q:1/4=120
M:4/4
L:1/8
cg gf ga gf | de gf e2 d2 :: de fd (3edc Bc | df ed c2 c2 :|
